<?xml version="1.0" encoding="UTF-8"?>
<map version="1.10" tiledversion="1.12.2" orientation="orthogonal" renderorder="right-down" width="30" height="20" tilewidth="16" tileheight="16" infinite="0" nextlayerid="5" nextobjectid="1">
 <tileset firstgid="1" source="topdown_town_kenney.tsx"/>
 <layer id="1" name="ground" width="30" height="20">
  <data encoding="csv">
1,1,1,1,1,1,1,1,1,1,1,1,1,1,1,1,1,1,1,1,1,1,1,1,1,1,1,1,1,1,
1,1,1,1,1,1,1,1,1,1,1,1,1,1,1,1,1,1,1,1,1,1,1,1,1,1,1,1,1,1,
1,1,1,1,1,1,1,1,1,1,26,26,26,26,26,26,26,26,26,26,1,1,1,1,1,1,1,1,1,1,
1,1,1,1,1,1,1,1,1,1,26,26,26,26,26,26,26,26,26,26,1,1,1,1,1,1,1,1,1,1,
1,1,1,1,26,26,26,26,26,26,26,26,26,26,26,26,26,26,26,26,26,26,26,26,26,26,1,1,1,1,
1,1,1,1,26,26,26,26,26,26,26,26,26,26,26,26,26,26,26,26,26,26,26,26,26,26,1,1,1,1,
1,1,1,1,26,26,1,1,1,1,26,26,26,26,26,26,26,26,26,26,1,1,1,1,26,26,1,1,1,1,
1,1,1,1,26,26,1,1,1,1,26,26,26,26,26,26,26,26,26,26,1,1,1,1,26,26,1,1,1,1,
1,1,1,1,26,26,1,1,1,1,26,26,26,26,26,26,26,26,26,26,1,1,1,1,26,26,1,1,1,1,
1,1,1,1,26,26,1,1,1,1,26,26,26,26,26,26,26,26,26,26,1,1,1,1,26,26,1,1,1,1,
1,1,1,1,26,26,1,1,1,1,1,1,1,1,26,26,1,1,1,1,1,1,1,1,26,26,1,1,1,1,
1,1,1,1,26,26,1,1,1,1,1,1,1,1,26,26,1,1,1,1,1,1,1,1,26,26,1,1,1,1,
1,1,1,1,26,26,1,1,1,1,1,1,1,1,26,26,1,1,1,1,1,1,1,1,26,26,1,1,1,1,
1,1,1,1,26,26,1,1,1,1,1,1,1,1,26,26,1,1,1,1,1,1,1,1,26,26,1,1,1,1,
1,1,26,26,26,26,26,26,1,1,1,1,1,1,26,26,1,1,1,1,1,1,26,26,26,26,26,26,1,1,
1,1,26,26,26,26,26,26,1,1,1,1,1,1,26,26,1,1,1,1,1,1,26,26,26,26,26,26,1,1,
1,1,26,26,26,26,26,26,1,1,1,1,1,1,26,26,1,1,1,1,1,1,26,26,26,26,26,26,1,1,
1,1,26,26,26,26,26,26,1,1,1,1,1,1,26,26,1,1,1,1,1,1,26,26,26,26,26,26,1,1,
1,1,1,1,1,1,1,1,1,1,1,1,1,1,26,26,1,1,1,1,1,1,1,1,1,1,1,1,1,1,
1,1,1,1,1,1,1,1,1,1,1,1,1,1,26,26,1,1,1,1,1,1,1,1,1,1,1,1,1,1
</data>
 </layer>
 <layer id="2" name="walls" width="30" height="20">
  <data encoding="csv">
100,101,101,101,101,101,101,101,101,101,101,101,101,101,101,101,101,101,101,101,101,101,101,101,101,101,101,101,101,102,
536871012,0,29,0,0,0,0,0,0,45,82,82,82,82,82,82,82,82,82,82,47,0,0,0,0,0,0,0,29,2684354660,
536871013,0,0,0,0,0,0,29,0,57,0,0,0,0,0,0,0,0,0,0,59,0,0,29,0,0,0,0,0,2684354661,
536871013,0,0,45,82,82,82,82,82,71,0,0,0,0,0,0,0,0,0,0,69,82,82,82,82,82,47,0,0,2684354661,
536871013,29,0,57,0,0,0,0,0,0,0,0,0,0,0,0,0,0,0,0,0,0,0,0,0,0,60,0,0,2684354661,
536871013,0,0,57,0,0,0,0,0,0,0,0,0,0,0,0,0,0,0,0,0,0,0,0,0,0,60,0,0,2684354661,
536871013,0,0,57,0,0,45,82,82,47,0,0,0,0,0,0,0,0,0,0,45,82,82,47,0,0,60,0,0,2684354661,
536871013,0,0,57,0,0,59,0,0,60,0,0,0,0,0,0,0,0,0,0,60,0,0,60,0,0,60,0,0,2684354661,
536871013,0,29,57,0,0,59,0,0,60,0,0,0,0,0,0,0,0,0,0,60,0,0,60,0,0,60,0,29,2684354661,
536871013,0,0,57,0,0,59,0,0,60,0,0,0,0,0,0,0,0,0,0,60,0,0,60,0,0,60,0,0,2684354661,
536871013,0,0,57,0,0,59,0,0,69,82,82,82,47,0,0,45,82,82,82,71,0,0,60,0,0,60,0,0,2684354661,
536871013,29,0,57,0,0,59,0,0,0,0,0,0,60,0,0,60,0,0,0,0,0,0,60,0,0,60,0,0,2684354661,
536871013,0,0,59,0,0,59,0,0,0,29,0,0,60,0,0,60,0,0,0,0,29,0,60,0,0,60,0,0,2684354661,
536871013,45,82,71,0,0,69,82,47,0,0,0,0,60,0,0,60,0,0,0,0,45,82,71,0,0,69,82,47,2684354661,
536871013,57,0,0,0,0,0,0,59,0,0,0,0,60,0,0,60,0,29,0,0,57,0,0,0,0,0,0,59,2684354661,
536871013,57,0,0,0,0,0,0,59,0,0,0,0,60,0,0,60,0,0,0,0,57,0,0,0,0,0,0,59,2684354661,
536871013,57,0,0,0,0,0,0,59,0,0,0,0,60,0,0,60,0,0,0,0,57,0,0,0,0,0,0,59,2684354661,
536871013,57,0,0,0,0,0,0,59,0,0,29,0,60,0,0,60,0,0,29,0,57,0,0,0,0,0,0,59,2684354661,
1610612836,69,82,46,82,82,46,82,71,0,0,0,0,60,0,0,60,0,0,0,0,69,82,46,82,82,46,82,71,3758096484,
100,101,101,101,101,101,101,101,101,101,101,101,101,101,101,101,101,101,101,101,101,101,101,101,101,101,101,101,101,102
</data>
 </layer>
 <layer id="3" name="collectables" width="30" height="20">
  <data encoding="csv">
0,0,0,0,0,0,0,0,0,0,0,0,0,0,0,0,0,0,0,0,0,0,0,0,0,0,0,0,0,0,
0,0,0,0,0,0,0,0,0,0,0,0,0,0,0,0,0,0,0,0,0,0,0,0,0,0,0,0,0,0,
0,0,0,0,0,0,0,0,0,0,0,0,0,0,0,0,0,0,0,0,0,0,0,0,0,0,0,0,0,0,
0,0,0,0,0,0,0,0,0,0,0,0,0,0,0,30,0,0,0,0,0,0,0,0,0,0,0,0,0,0,
0,0,0,0,30,0,0,0,0,0,0,0,0,0,0,0,0,0,0,0,0,0,0,0,0,0,0,0,0,0,
0,0,0,0,0,0,0,0,0,0,0,0,0,0,0,0,0,0,0,0,0,0,0,0,0,0,0,0,0,0,
0,0,0,0,0,0,0,0,0,0,0,0,0,0,0,0,0,0,0,0,0,0,0,0,0,0,0,0,0,0,
0,0,0,0,0,0,0,0,0,0,0,0,0,0,0,0,0,0,0,0,0,0,0,0,0,0,0,0,0,0,
0,0,0,0,0,0,0,0,0,0,0,30,0,0,0,0,0,0,0,0,0,0,0,0,0,0,0,0,0,0,
0,0,0,0,0,0,0,0,0,0,0,0,0,0,0,0,0,0,0,0,0,0,0,0,0,0,0,0,0,0,
0,0,0,0,0,0,0,0,0,0,0,0,0,0,0,0,0,0,0,0,0,0,0,0,0,0,0,0,0,0,
0,0,0,0,0,0,0,0,0,0,0,0,0,0,0,0,0,0,0,0,0,0,0,0,0,0,0,0,0,0,
0,0,0,0,0,0,0,0,0,0,0,0,0,0,0,0,0,0,0,0,0,0,0,0,0,0,0,0,0,0,
0,0,0,0,0,0,0,0,0,0,0,0,0,0,0,0,0,0,0,0,0,0,0,0,0,0,0,0,0,0,
0,0,0,0,0,0,0,0,0,0,0,0,0,0,0,0,0,0,0,0,0,0,0,0,0,0,0,0,0,0,
0,0,0,0,0,0,0,0,0,0,0,0,0,0,0,0,0,0,0,0,0,0,0,0,0,0,0,0,0,0,
0,0,0,30,0,0,0,0,0,0,0,0,0,0,0,0,0,0,0,0,0,0,0,30,0,0,0,0,0,0,
0,0,0,0,0,0,0,0,0,0,0,0,0,0,0,0,0,0,0,0,0,0,0,0,0,0,0,0,0,0,
0,0,0,0,0,0,0,0,0,0,0,0,0,0,0,0,0,0,0,0,0,0,0,0,0,0,0,0,0,0,
0,0,0,0,0,0,0,0,0,0,0,0,0,0,0,0,0,0,0,0,0,0,0,0,0,0,0,0,0,0
</data>
 </layer>
 <layer id="4" name="hazards" width="30" height="20">
  <data encoding="csv">
0,0,0,0,0,0,0,0,0,0,0,0,0,0,0,0,0,0,0,0,0,0,0,0,0,0,0,0,0,0,
0,0,0,0,0,0,0,0,0,0,0,0,0,0,0,0,0,0,0,0,0,0,0,0,0,0,0,0,0,0,
0,0,0,0,0,0,0,0,0,0,0,0,0,0,0,0,0,0,0,0,0,0,0,0,0,0,0,0,0,0,
0,0,0,0,0,0,0,0,0,0,0,0,0,0,0,0,0,0,0,0,0,0,0,0,0,0,0,0,0,0,
0,0,0,0,0,0,0,0,0,0,0,0,0,0,0,0,0,0,0,0,0,0,0,0,0,0,0,0,0,0,
0,0,0,0,0,0,0,0,0,0,0,0,0,0,0,0,0,0,0,0,0,0,0,0,0,0,0,0,0,0,
0,0,0,0,0,0,0,0,0,0,0,0,0,0,0,0,0,0,0,0,0,0,0,0,0,0,0,0,0,0,
0,0,0,0,0,0,0,0,0,0,0,0,0,0,0,0,0,95,0,0,0,0,0,0,0,0,0,0,0,0,
0,0,0,0,0,0,0,0,0,0,0,0,0,0,0,0,0,0,0,0,0,0,0,0,0,0,0,0,0,0,
0,0,0,0,0,0,0,0,0,0,0,0,0,0,0,0,0,0,0,0,0,0,0,0,0,0,0,0,0,0,
0,0,0,0,0,0,0,0,0,0,0,0,0,0,0,0,0,0,0,0,0,0,0,0,0,0,0,0,0,0,
0,0,0,0,0,0,0,0,0,0,0,0,0,0,0,0,0,0,0,0,0,0,0,0,0,0,0,0,0,0,
0,0,0,0,0,0,0,0,0,0,0,0,0,0,0,0,0,0,0,0,0,0,0,0,0,0,0,0,0,0,
0,0,0,0,0,0,0,0,0,0,0,0,0,0,0,0,0,0,0,0,0,0,0,0,0,0,0,0,0,0,
0,0,0,0,0,0,0,0,0,0,0,0,0,0,0,0,0,0,0,0,0,0,0,0,0,0,0,0,0,0,
0,0,0,0,0,0,95,0,0,0,0,0,0,0,0,0,0,0,0,0,0,0,0,0,0,0,95,0,0,0,
0,0,0,0,0,0,0,0,0,0,0,0,0,0,0,0,0,0,0,0,0,0,0,0,0,0,0,0,0,0,
0,0,0,0,0,0,0,0,0,0,0,0,0,0,0,0,0,0,0,0,0,0,0,0,0,0,0,0,0,0,
0,0,0,0,0,0,0,0,0,0,0,0,0,0,0,0,0,0,0,0,0,0,0,0,0,0,0,0,0,0,
0,0,0,0,0,0,0,0,0,0,0,0,0,0,0,0,0,0,0,0,0,0,0,0,0,0,0,0,0,0
</data>
 </layer>
</map>
